X: 1883
T: Tâhir Seyir
C: Erol Bingöl
O: Turkey
F: http://compmusic.upf.edu/node/140
N: tahir--seyir--turkaksagi--1--erol_bingol
N: makam= tahir
N: form= seyir
N: usul= turkaksagi = 5/8
M: 5/8
L: 1/16
K: C _2/4B ^3/4f  
Q: 1/4=120
%%MIDI tuningsystem comma53
g3a a4 a2 | ac' baa6  | a2g2 f4 d2 | e2 edd6  | \
w:   |   |   |   | 
d2e2 ^f2g2 a2 | 
w:   | 
c'2 b2a2 g2=f2  | e2d2 =f2e2 d2 | cB BAA6  | |


